X: 132
P: Longways for as many as will
M: 6/4
L: 1/4
K: Ephr
e2f g>fe | d2c B2B/c/ | d2d d2c | B3- B2B/c/ |\
d2d d2c/B/ | A2A A>BA | G2G (GB)A | G3- G2 |]
(dB)c A2^G | A3 g3 | fge e2^d | e3- e2 |]

